X:1
T:Langdon
T:A minor              Hezekiah Moors, 1809
T:Transcribed from Province Harmony , 1809; Counter by B. C. Johnston, 2018.
T:Isaac Watts, 1719 (Psalm 139, Part 2)                     86. 86. (C. M.)
%%score [ 1 2 3 4 ]
L:1/8
Q:1/4=120
M:3/2
K:C
V:1 treble nm="Tr." snm="Tr."
V:2 treble nm="C." snm="C."
V:3 treble-8 nm="T." snm="T."
V:4 bass nm="B." snm="B."
V:1
"_1. When  I  with  plea – sing  wonder  stand,  And  all   my   frame         sur –vey,  Lord, tis thy work I own thy hand Thus built my humble clay.\n2. Thy hand  my  heart  and  reins possessed Where  unborn  na   –   ture  grew;  Thy wisdom all my features traced, And all my members drew." A4 | %1
 (E4 c4) B4 | (A3 B c4) B4 | (c4 B4) A4 | ^G8 G4 | (A3 B c4) e4 | (d3 c B2 A2) ^G4 | A8 z4 || %8
[M:2/2] A4 d2 d2 | e4 z2 c2 | B4 A4 | ^G4 B4 | (c2 e2) (d2 c2) | B4 B4 | A8 |] %15
V:2
"_3. Thine eye with ni  – cest  care  surveyed  The  growth  of   eve – ry part;  Till the whole scheme thy thoughts had laid  Was copied by thy art." A4 | %1
 E8 ^G4 | (A3 B A4) B4 | (c4 B4) c4 | B8 E4 | (A3 B A4) E4 | (A3 c B2 A2) B4 | A8 z4 || %8
[M:2/2] A4 B2 A2 | E4 z2 E2 | G4 A4 | B4 B4 | (c2 A2) (D2 A2) | B4 B4 | A8 |] %15
V:3
"_4. Heav'n, earth, and sea, and  fire, and wind,  Show me  thy won  –   drous skill     But  I  review myself, and find   Di – vi  –  ner  wonders  still.\n5. Thy  awe–ful  glo  –  ries  round  me shine,  My flesh pro – claims  thy praise;   Lord, to thy works of nature join  Thy  mi – ra – cles  of  grace." A4 | %1
 (^G4 e4) d4 | (c3 B A4) ^G4 | (A4 B4) c4 | B8 B4 | (c3 d e4) c4 | (A4 d2 c2) B4 | A8 z4 || %8
[M:2/2] c4 B2 A2 | ^G4 z2 e2 | d4 c4 | B4 ^G4 | (A2 c2) (B2 A2) | E4 ^G4 | A8 |] %15
V:4
"_________________________________________________\nEdited by B. C. Johnston, 2018\n   1. Measure 12, \nTreble\n: second note changed from A to B.\n   2. Counter part written." A,4 | %1
 E,8 ^G,4 | A,8 E,4 | (A,4 ^G,4) A,4 | E,8 E,4 | A,8 A,4 | D,8 E,4 | A,,8 z4 || %8
[M:2/2] A,4 G,2 F,2 | E,4 z2 C,2 | G,4 A,4 | E,4 E,4 | A,4 D,4 | E,4 E,4 | A,,8 |] %15

